fs/mail_arrow_up_20_filled.svg

<svg viewBox="0 0 20 20" fill="none" xmlns="http://www.w3.org/2000/svg" height="1em" width="1em">
  <path d="M19 5.5C19 7.98528 16.9853 10 14.5 10C12.0147 10 10 7.98528 10 5.5C10 3.01472 12.0147 1 14.5 1C16.9853 1 19 3.01472 19 5.5ZM14.8539 3.1469L14.8514 3.14439C14.804 3.0975 14.7495 3.06203 14.6914 3.03799C14.6333 3.01391 14.5697 3.00046 14.503 3.00006L14.5 3.00006L14.497 3.00006C14.4303 3.00046 14.3667 3.01391 14.3086 3.03799C14.2496 3.06239 14.1944 3.09856 14.1464 3.1465L12.1464 5.1465C11.9512 5.34176 11.9512 5.65835 12.1464 5.85361C12.3417 6.04887 12.6583 6.04887 12.8535 5.85361L14 4.70716V7.50006C14 7.7762 14.2238 8.00006 14.5 8.00006C14.7761 8.00006 15 7.7762 15 7.50006L15 4.70716L16.1464 5.85361C16.3417 6.04887 16.6583 6.04887 16.8535 5.85361C17.0488 5.65835 17.0488 5.34176 16.8535 5.1465L14.8539 3.1469ZM14.5 11C15.8297 11 17.0491 10.5282 18.0001 9.74276V14.5C18.0001 15.8807 16.8808 17 15.5001 17H4.50008C3.11937 17 2 15.8807 2 14.5V7.373L9.74657 11.931C9.90304 12.023 10.0971 12.023 10.2536 11.931L12.4839 10.6187C13.1081 10.8648 13.7883 11 14.5 11ZM4.50008 4H9.20703C9.07217 4.47683 9 4.97999 9 5.5C9 7.4057 9.96922 9.08503 11.4416 10.0719L10.0001 10.9199L2.01526 6.22293C2.15311 4.9726 3.21301 4 4.50008 4Z" fill="#212121"/>
</svg>

<svg viewBox="0 0 20 20" fill="none" xmlns="http://www.w3.org/2000/svg" height="1em" width="1em">
  <path d="M19 5.5a4.5 4.5 0 1 1-9 0 4.5 4.5 0 0 1 9 0Zm-4.146-2.353-.003-.003A.498.498 0 0 0 14.503 3h-.006a.499.499 0 0 0-.35.147l-2 2a.5.5 0 0 0 .707.707L14 4.707V7.5a.5.5 0 1 0 1 0V4.707l1.146 1.147a.5.5 0 1 0 .707-.708l-2-2ZM14.5 11c1.33 0 2.55-.472 3.5-1.257V14.5a2.5 2.5 0 0 1-2.5 2.5h-11A2.5 2.5 0 0 1 2 14.5V7.373l7.747 4.558a.5.5 0 0 0 .507 0l2.23-1.312A5.485 5.485 0 0 0 14.5 11Zm-10-7h4.707a5.496 5.496 0 0 0 2.235 6.072L10 10.92 2.015 6.223A2.5 2.5 0 0 1 4.5 4Z" fill="#212121"/>
</svg>
